public/assets/heat2.svg

<svg width="84" height="84" viewBox="0 0 84 84" fill="none" xmlns="http://www.w3.org/2000/svg">
<g clip-path="url(#clip0_37_306)">
<path d="M35.4468 83.5599L67.8471 27.7714C68.5807 26.5083 67.5404 24.9539 66.093 25.1508L44.5411 28.0802L49.6905 1.04561C49.8641 0.13424 48.6891 -0.387971 48.129 0.351458L16.2723 42.4023C15.3444 43.627 16.3269 45.3686 17.855 45.2078L41.6159 42.7067L33.8263 82.9525C33.6385 83.9233 34.9502 84.415 35.4468 83.5599Z" fill="#FFDC64"/>
<path d="M26.2345 39.4222C25.6395 39.4698 25.2442 38.8193 25.5605 38.3132L49.379 0.203729C49.0246 -0.0766539 48.4668 -0.0947008 48.129 0.351221L16.2723 42.4021C15.3444 43.627 16.3269 45.3683 17.855 45.2075L41.6159 42.7064L33.8263 82.9523C33.7213 83.4951 34.0875 83.8771 34.5156 83.9685L47.8635 41.7311C48.4893 39.7513 46.9107 37.768 44.841 37.9337L26.2345 39.4222Z" fill="#FFC850"/>
</g>
<defs>
<clipPath id="clip0_37_306">
<rect width="84" height="84" fill="white"/>
</clipPath>
</defs>
</svg>

<svg width="84" height="84" fill="none" xmlns="http://www.w3.org/2000/svg"><g clip-path="url(#a)"><path d="m35.447 83.56 32.4-55.789c.734-1.263-.307-2.817-1.754-2.62l-21.552 2.93 5.15-27.035c.173-.912-1.002-1.434-1.562-.695L16.272 42.402c-.928 1.225.055 2.967 1.583 2.806l23.76-2.501-7.789 40.245c-.188.971 1.124 1.463 1.62.608z" fill="#FFDC64"/><path d="M26.235 39.422a.726.726 0 0 1-.674-1.109L49.379.203c-.354-.28-.912-.298-1.25.148L16.272 42.402c-.928 1.225.055 2.966 1.583 2.806l23.76-2.502-7.789 40.246c-.105.543.261.925.69 1.017L47.864 41.73c.625-1.98-.953-3.963-3.023-3.797l-18.607 1.488z" fill="#FFC850"/></g><defs><clipPath id="a"><path fill="#fff" d="M0 0h84v84H0z"/></clipPath></defs></svg>
